X: 2
T: Miss Girdle
R: Reel
Q: 1/4 = 160
C: Traditional
N: 
M: 4/4
L: 1/8
K: HP
|: {g}d{c}d {g}dB {g}c{d}A{g}B{d}G | {g}d{c}d {g}dB  {g}cd{g}ef | {g}d{c}d {g}dB {g}c{d}A{g}B{d}G | {a}gf{gef}ed {g}cd{g}ef :|| {g}d{c}d {g}fd ad{g}fd | {g}d{c}d {g}fd {g}cd{g}ef | {g}d{c}d  {g}fd ad{g}fd | {a}gf{gef}ed {g}cd{g}ef || {g}d{c}d {g}fd ad{g}fd | {g}d{c}d {g}fd {g}cd{g}ef | af{a}ge {g}fd{gef}ed | {a}gf{gef}ed {g}cd{g}ef ||